images/svg/infographic-cottages.svg

<svg width="90" height="90" viewBox="0 0 90 90" fill="none" xmlns="http://www.w3.org/2000/svg">
<g clip-path="url(#clip0_334_305)">
<path fill-rule="evenodd" clip-rule="evenodd" d="M0.0101318 57.8739H31.0562V51.6382H6.24584V20.8876L29.4769 7.47881L52.708 20.8876V36.915L58.9437 33.3183V17.2909L29.4769 0.275146L0.0101318 17.2909V57.8739Z" fill="url(#paint0_linear_334_305)"/>
<path fill-rule="evenodd" clip-rule="evenodd" d="M31.0562 90.0001H89.9897V49.417L60.5229 32.4115L31.0562 49.417V90.0001ZM37.2919 83.7644V53.024L60.5229 39.605L83.7438 53.024V83.7644H37.2919Z" fill="url(#paint1_linear_334_305)"/>
</g>
<defs>
<linearGradient id="paint0_linear_334_305" x1="65.536" y1="71.242" x2="16.2413" y2="-16.4655" gradientUnits="userSpaceOnUse">
<stop stop-color="#0E42B8"/>
<stop offset="0.568627" stop-color="#1B8CF6"/>
<stop offset="1" stop-color="#65C9FB"/>
</linearGradient>
<linearGradient id="paint1_linear_334_305" x1="71.5169" y1="106.822" x2="34.6223" y2="37.2105" gradientUnits="userSpaceOnUse">
<stop stop-color="#28B1A1"/>
<stop offset="0.6" stop-color="#57DA98"/>
<stop offset="1" stop-color="#9AE974"/>
</linearGradient>
<clipPath id="clip0_334_305">
<rect width="90" height="90" fill="white"/>
</clipPath>
</defs>
</svg>

<svg width="90" height="90" fill="none" xmlns="http://www.w3.org/2000/svg"><g clip-path="url(#a)" fill-rule="evenodd" clip-rule="evenodd"><path d="M.01 57.874h31.046v-6.236H6.246v-30.75l23.23-13.41 23.232 13.41v16.027l6.236-3.597V17.291L29.477.275.01 17.291v40.583z" fill="url(#b)"/><path d="M31.056 90H89.99V49.417L60.523 32.411 31.056 49.417V90zm6.236-6.236v-30.74l23.23-13.419 23.222 13.419v30.74H37.292z" fill="url(#c)"/></g><defs><linearGradient id="b" x1="65.536" y1="71.242" x2="16.241" y2="-16.465" gradientUnits="userSpaceOnUse"><stop stop-color="#0E42B8"/><stop offset=".569" stop-color="#1B8CF6"/><stop offset="1" stop-color="#65C9FB"/></linearGradient><linearGradient id="c" x1="71.517" y1="106.822" x2="34.622" y2="37.211" gradientUnits="userSpaceOnUse"><stop stop-color="#28B1A1"/><stop offset=".6" stop-color="#57DA98"/><stop offset="1" stop-color="#9AE974"/></linearGradient><clipPath id="a"><path fill="#fff" d="M0 0h90v90H0z"/></clipPath></defs></svg>
